X:74
T:74 Morgiana in Spain
C:Welch MS
I:abc2nwc
M:6/8
L:1/8
K:G
B2c d2g|B2c d2g|e2e a2g|fag fed|B2c d2g|B2c d2g|e2a fef|g2g g2||
b|a2g f2b|a2g f2b|a2g f2e|d2d d2b|a2g f2b|a2g f2b|abg fge|dec BcA|]

